Sources/FrostedUI/Resources/Icons.xcassets/calendarPlusSize16.imageset/calendar-plus-size-16.svg

<svg
  width="16"
  height="16"
  viewBox="0 0 16 16"
  fill="none"
  xmlns="http://www.w3.org/2000/svg"
  data-fui-icon="true"
>
  <path
    d="M5.16667 3.16671H3.83333C3.09695 3.16671 2.5 3.76366 2.5 4.50004V6.16671M5.16667 3.16671H10.8333M5.16667 3.16671V1.83337M2.5 6.16671V12.1667C2.5 12.9031 3.09695 13.5 3.83333 13.5H7.5M2.5 6.16671H13.5M10.8333 3.16671H12.1667C12.9031 3.16671 13.5 3.76366 13.5 4.50004V6.16671M10.8333 3.16671V1.83337M13.5 6.16671V7.50004M11.8333 9.83337V12M11.8333 12V14.1667M11.8333 12H9.66667M11.8333 12H14"
    stroke="currentColor"
    stroke-width="1.5"
    stroke-linecap="round"
    stroke-linejoin="round"
  />
</svg>

<svg xmlns="http://www.w3.org/2000/svg" width="16" height="16" fill="none" data-fui-icon="true" viewBox="0 0 16 16"><path stroke="currentColor" stroke-linecap="round" stroke-linejoin="round" stroke-width="1.5" d="M5.167 3.167H3.833c-.736 0-1.333.597-1.333 1.333v1.667m2.667-3h5.666m-5.666 0V1.833M2.5 6.167v6c0 .736.597 1.333 1.333 1.333H7.5m-5-7.333h11m-2.667-3h1.334c.736 0 1.333.597 1.333 1.333v1.667m-2.667-3V1.833M13.5 6.167V7.5m-1.667 2.333V12m0 0v2.167m0-2.167H9.667m2.166 0H14"/></svg>
